src/static/reflash.svg

<?xml version="1.0" encoding="UTF-8"?>
<svg width="168px" height="168px" viewBox="0 0 168 168" version="1.1" xmlns="http://www.w3.org/2000/svg" xmlns:xlink="http://www.w3.org/1999/xlink">
    <title>reflash</title>
    <defs>
        <filter color-interpolation-filters="auto" id="filter-1">
            <feColorMatrix in="SourceGraphic" type="matrix" values="0 0 0 0 0.435294 0 0 0 0 0.431373 0 0 0 0 0.517647 0 0 0 1.000000 0"></feColorMatrix>
        </filter>
    </defs>
    <g id="Page-1" stroke="none" stroke-width="1" fill="none" fill-rule="evenodd">
        <g filter="url(#filter-1)" id="reflash">
            <g transform="translate(0.666667, 0.666610)">
                <path d="M16.6666668,83.3333903 C16.6666668,87.9357632 12.9357063,91.6667237 8.3333334,91.6667237 C3.73096045,91.6667237 0,87.9357632 0,83.3333903 C0,37.3083903 37.3083334,2.84058528e-05 83.3333334,2.84058528e-05 C109.566289,-0.0216175045 134.273366,12.3288329 150,33.3250569 L150,25.0000569 C150,20.3976839 153.73096,16.6667235 158.333333,16.6667235 C162.935706,16.6667235 166.666667,20.3976839 166.666667,25.0000569 L166.666667,58.3333903 C166.666667,62.9357632 162.935706,66.6667237 158.333333,66.6667237 L125,66.6667237 C120.397627,66.6667237 116.666667,62.9357632 116.666667,58.3333903 C116.666667,53.7310173 120.397627,50.0000569 125,50.0000569 L141.083333,50.0000569 C126.003032,23.8530719 95.2365063,11.100515 66.0806628,18.9118596 C36.9248192,26.7232042 16.6549147,53.1492855 16.6666668,83.3333903 L16.6666668,83.3333903 Z M150,83.3333903 C150,78.7310173 153.73096,75.0000569 158.333333,75.0000569 C162.935706,75.0000569 166.666667,78.7310173 166.666667,83.3333903 C166.666667,129.35839 129.358333,166.666752 83.3333334,166.666752 C57.1003779,166.688398 32.3933004,154.337948 16.6666668,133.341724 L16.6666668,141.666724 C16.6666668,146.269097 12.9357063,150.000057 8.3333334,150.000057 C3.73096045,150.000057 0,146.269097 0,141.666724 L0,108.33339 C0,103.731017 3.73096045,100.000057 8.3333334,100.000057 L41.6666668,100.000057 C46.2690396,100.000057 50,103.731017 50,108.33339 C50,112.935763 46.2690396,116.666723 41.6666668,116.666724 L25.5833334,116.666724 C40.6636348,142.813709 71.4301605,155.566266 100.586004,147.754921 C129.741848,139.943576 150.011752,113.517495 150,83.3333903 L150,83.3333903 Z" id="Shape" fill="#DBDBDB" fill-rule="nonzero"></path>
            </g>
        </g>
    </g>
</svg>

<?xml version="1.0" encoding="utf-8"?>
<!-- Generator: Adobe Illustrator 25.3.1, SVG Export Plug-In . SVG Version: 6.00 Build 0)  -->
<svg version="1.1" id="图层_1" xmlns="http://www.w3.org/2000/svg" xmlns:xlink="http://www.w3.org/1999/xlink" x="0px" y="0px"
	 viewBox="0 0 168 168" style="enable-background:new 0 0 168 168;" xml:space="preserve">
<style type="text/css">
	.st0{fill:#292940;}
</style>
<g id="Page-1">
	<g id="reflash">
		<g transform="translate(0.666667, 0.666610)">
			<path id="Shape" class="st0" d="M16.7,83.3c0,4.6-3.7,8.3-8.3,8.3S0,87.9,0,83.3C0,37.3,37.3,0,83.3,0
				c26.2,0,50.9,12.3,66.7,33.3V25c0-4.6,3.7-8.3,8.3-8.3s8.3,3.7,8.3,8.3v33.3c0,4.6-3.7,8.3-8.3,8.3H125c-4.6,0-8.3-3.7-8.3-8.3
				s3.7-8.3,8.3-8.3h16.1c-15.1-26.1-45.8-38.9-75-31.1S16.7,53.1,16.7,83.3L16.7,83.3z M150,83.3c0-4.6,3.7-8.3,8.3-8.3
				s8.3,3.7,8.3,8.3c0,46-37.3,83.3-83.3,83.3c-26.2,0-50.9-12.3-66.7-33.3v8.3c0,4.6-3.7,8.3-8.3,8.3S0,146.3,0,141.7v-33.3
				c0-4.6,3.7-8.3,8.3-8.3h33.3c4.6,0,8.3,3.7,8.3,8.3s-3.7,8.3-8.3,8.3H25.6c15.1,26.1,45.8,38.9,75,31.1
				C129.7,139.9,150,113.5,150,83.3L150,83.3z"/>
		</g>
	</g>
</g>
</svg>
